X:542
M:C|
L:1/8
Q:1/4=140
K:D
|:B|D<D F>D A<F E>B|D<D F>D A>D F<D|GB/G/ Fd/F/ E>D E<F|
|:f|d<d d>B e>d e<f|A<A B>A d2 d>f|d<d d>B e>d e<f|A<A B>A d3:|
f/g/|a>fd>f e>d e<f|a/g/f/e/ d>A d>ef>d|ga/g/ f/a/g/f/ e>d e<f|A<A B>A d2df|

